dist/assets/images/form-order-1.svg

<?xml version="1.0" encoding="UTF-8"?>
<svg width="79px" height="78px" viewBox="0 0 79 78" version="1.1" xmlns="http://www.w3.org/2000/svg" xmlns:xlink="http://www.w3.org/1999/xlink">
    <!-- Generator: Sketch 41.2 (35397) - http://www.bohemiancoding.com/sketch -->
    <title>noun_221171</title>
    <desc>Created with Sketch.</desc>
    <defs></defs>
    <g id="_Forms" stroke="none" stroke-width="1" fill="none" fill-rule="evenodd">
        <g id="Модальное-окно-заказа" transform="translate(-561.000000, -1518.000000)" fill="#FFFFFF">
            <g id="Group-2" transform="translate(130.000000, 1518.000000)">
                <g id="noun_221171" transform="translate(431.000000, 0.000000)">
                    <g id="Group">
                        <path d="M39.627451,0 C17.9803922,0 0.411764706,17.472 0.411764706,39 C0.411764706,60.528 17.9803922,78 39.627451,78 C48.4117647,78 56.8823529,75.036 63.7843137,69.732 L63.7843137,73.632 L67.2352941,73.632 L67.2352941,63.336 L56.8823529,63.336 L56.8823529,66.768 L62.2156863,66.768 C55.7843137,71.916 47.9411765,74.724 39.7843137,74.724 C19.8627451,74.724 3.70588235,58.656 3.70588235,39 C3.70588235,19.344 19.8627451,3.432 39.627451,3.432 C59.3921569,3.432 75.5490196,19.344 75.5490196,39 C75.5490196,46.8 73.0392157,54.132 68.3333333,60.372 L71,62.4 C76.1764706,55.536 78.8431373,47.424 78.8431373,39 C79,17.472 61.2745098,0 39.627451,0 Z" id="Shape"></path>
                        <path d="M34.4509804,20.592 C31.1568627,20.592 28.4901961,23.244 28.4901961,26.52 L28.4901961,51.636 C28.4901961,54.912 31.1568627,57.564 34.4509804,57.564 L44.9607843,57.564 C48.254902,57.564 50.9215686,54.912 50.9215686,51.636 L50.9215686,26.52 C50.9215686,23.244 48.254902,20.592 44.9607843,20.592 L34.4509804,20.592 Z M47.4705882,26.52 L47.4705882,51.636 C47.4705882,53.04 46.372549,54.132 44.9607843,54.132 L34.4509804,54.132 C33.0392157,54.132 31.9411765,53.04 31.9411765,51.636 L31.9411765,26.52 C31.9411765,25.116 33.0392157,24.024 34.4509804,24.024 L44.9607843,24.024 C46.2156863,24.024 47.4705882,25.116 47.4705882,26.52 Z" id="Shape"></path>
                        <ellipse id="Oval" cx="39.627451" cy="49.764" rx="2.19607843" ry="2.184"></ellipse>
                    </g>
                </g>
            </g>
        </g>
    </g>
</svg>

<svg width="79" height="78" viewBox="0 0 79 78" xmlns="http://www.w3.org/2000/svg"><title>noun_221171</title><g fill="#FFF" fill-rule="evenodd"><path d="M39.627 0C17.98 0 .412 17.472.412 39S17.98 78 39.627 78c8.785 0 17.255-2.964 24.157-8.268v3.9h3.451V63.336H56.882v3.432h5.334c-6.432 5.148-14.275 7.956-22.432 7.956C19.863 74.724 3.706 58.656 3.706 39c0-19.656 16.157-35.568 35.921-35.568C59.392 3.432 75.55 19.344 75.55 39c0 7.8-2.51 15.132-7.216 21.372L71 62.4c5.176-6.864 7.843-14.976 7.843-23.4C79 17.472 61.275 0 39.627 0z"/><path d="M34.451 20.592c-3.294 0-5.96 2.652-5.96 5.928v25.116c0 3.276 2.666 5.928 5.96 5.928h10.51c3.294 0 5.96-2.652 5.96-5.928V26.52c0-3.276-2.666-5.928-5.96-5.928H34.45zm13.02 5.928v25.116c0 1.404-1.098 2.496-2.51 2.496H34.45c-1.412 0-2.51-1.092-2.51-2.496V26.52c0-1.404 1.098-2.496 2.51-2.496h10.51c1.255 0 2.51 1.092 2.51 2.496z"/><ellipse cx="39.627" cy="49.764" rx="2.196" ry="2.184"/></g></svg>
